actions/24/object-rotate-left.svg

<?xml version="1.0" encoding="UTF-8" standalone="no"?>
<svg
   xmlns:dc="http://purl.org/dc/elements/1.1/"
   xmlns:cc="http://creativecommons.org/ns#"
   xmlns:rdf="http://www.w3.org/1999/02/22-rdf-syntax-ns#"
   xmlns:svg="http://www.w3.org/2000/svg"
   xmlns="http://www.w3.org/2000/svg"
   xmlns:xlink="http://www.w3.org/1999/xlink"
   id="svg3349"
   height="24"
   width="24"
   version="1.0">
  <metadata
     id="metadata49">
    <rdf:RDF>
      <cc:Work
         rdf:about="">
        <dc:format>image/svg+xml</dc:format>
        <dc:type
           rdf:resource="http://purl.org/dc/dcmitype/StillImage" />
      </cc:Work>
    </rdf:RDF>
  </metadata>
  <defs
     id="defs3351">
    <linearGradient
       id="linearGradient4431">
      <stop
         id="stop4433"
         style="stop-color:#a575d6;stop-opacity:1"
         offset="0" />
      <stop
         id="stop4435"
         style="stop-color:#b483d5;stop-opacity:0"
         offset="1" />
    </linearGradient>
    <linearGradient
       id="linearGradient4425">
      <stop
         id="stop4427"
         style="stop-color:#6326b9;stop-opacity:1"
         offset="0" />
      <stop
         id="stop4429"
         style="stop-color:#903fc4;stop-opacity:0"
         offset="1" />
    </linearGradient>
    <radialGradient
       gradientTransform="matrix(-1.0352941,0,0,0.23529379,77.028857,20.411496)"
       gradientUnits="userSpaceOnUse"
       xlink:href="#linearGradient8838-634"
       id="radialGradient3400-552"
       fy="4.625"
       fx="62.625"
       r="10.625"
       cy="4.625"
       cx="62.625" />
    <linearGradient
       id="linearGradient8838-634">
      <stop
         offset="0"
         style="stop-color:#000000;stop-opacity:1"
         id="stop2746" />
      <stop
         offset="1"
         style="stop-color:#000000;stop-opacity:0"
         id="stop2748" />
    </linearGradient>
    <linearGradient
       gradientTransform="matrix(-0.5097808,0.03067969,0.03009813,0.5001183,22.774393,0.5062031)"
       gradientUnits="userSpaceOnUse"
       xlink:href="#linearGradient4431"
       id="linearGradient3404-708"
       y2="26.842505"
       x2="34.96563"
       y1="34.600941"
       x1="31.226292" />
    <linearGradient
       gradientTransform="matrix(-0.3446423,-0.3446422,-0.3381098,0.3381098,27.882197,14.32142)"
       gradientUnits="userSpaceOnUse"
       xlink:href="#linearGradient4873-523"
       id="linearGradient3408-109"
       y2="43.366352"
       x2="22.245434"
       y1="5.0201149"
       x1="32.325527" />
    <linearGradient
       id="linearGradient4873-523">
      <stop
         offset="0"
         style="stop-color:#ffffff;stop-opacity:1"
         id="stop2770" />
      <stop
         offset="1"
         style="stop-color:#ffffff;stop-opacity:0"
         id="stop2772" />
    </linearGradient>
    <linearGradient
       gradientTransform="matrix(-0.4865175,0.02927958,0.02872474,0.4772959,22.715721,1.9626372)"
       gradientUnits="userSpaceOnUse"
       xlink:href="#linearGradient3319-458"
       id="linearGradient3410-460"
       y2="28.50532"
       x2="39.686337"
       y1="41.67448"
       x1="28.116938" />
    <linearGradient
       id="linearGradient3319-458">
      <stop
         offset="0"
         style="stop-color:#ffffff;stop-opacity:0"
         id="stop2776" />
      <stop
         offset="0.63129705"
         style="stop-color:#ffffff;stop-opacity:0.27472529"
         id="stop2778" />
      <stop
         offset="1"
         style="stop-color:#ffffff;stop-opacity:0"
         id="stop2780" />
    </linearGradient>
    <linearGradient
       id="linearGradient4330">
      <stop
         id="stop4332"
         style="stop-color:#f0c1ff;stop-opacity:1"
         offset="0" />
      <stop
         id="stop4334"
         style="stop-color:#c5a3f2;stop-opacity:1"
         offset="0.26238" />
      <stop
         id="stop4336"
         style="stop-color:#7a36b1;stop-opacity:1"
         offset="0.704952" />
      <stop
         id="stop4338"
         style="stop-color:#4c2d81;stop-opacity:1"
         offset="1" />
    </linearGradient>
    <linearGradient
       gradientTransform="matrix(-0.5097808,0.03067969,0.03009813,0.5001183,22.774393,0.506203)"
       gradientUnits="userSpaceOnUse"
       xlink:href="#linearGradient4425"
       id="linearGradient3406-498-3"
       y2="29.856804"
       x2="37.039948"
       y1="35.773647"
       x1="33.686768" />
    <linearGradient
       y2="68.80278"
       x2="-33.29887"
       y1="-5.3019166"
       x1="39.401215"
       gradientTransform="matrix(-0.3446423,-0.3446422,-0.3381098,0.3381098,27.882197,14.32142)"
       gradientUnits="userSpaceOnUse"
       id="linearGradient4437"
       xlink:href="#linearGradient4330" />
  </defs>
  <path
     style="display:inline;overflow:visible;visibility:visible;opacity:0.4;fill:url(#radialGradient3400-552);fill-opacity:1;fill-rule:evenodd;stroke:none;stroke-width:0.99999988;marker:none"
     id="path8836"
     d="m 1.1935642,21.49973 a 11,2.5 0 0 0 21.9999998,0 11,2.5 0 1 0 -21.9999998,0 z" />
  <path
     style="fill:url(#linearGradient4437);fill-opacity:1;stroke:none;stroke-width:1.00474763;stroke-linecap:butt;stroke-linejoin:round;stroke-miterlimit:4;stroke-dasharray:none;stroke-opacity:1"
     id="path3372"
     d="m 11.698155,18.816592 c 1.128728,0.06587 2.859052,-0.343133 3.906116,-1.390196 1.747833,-1.747833 2.158823,-5.887156 0.01788,-7.9626149 C 14.755287,8.6234322 12.696644,7.5328709 11.503308,7.4999998 L 11.490368,10.5 5.393211,5.6907158 c 0,0 6.097157,-5.1907165 6.097157,-5.1907165 l 0.01404,2.8225719 c 2.6301,0.048138 5.12131,0.9196431 7.119025,2.8746754 4.063985,3.9771554 4.05746,10.3968804 0.175027,14.3682154 -1.985452,2.030915 -4.586146,2.999155 -7.197102,2.928568" />
  <path
     style="fill:url(#linearGradient3404-708);fill-opacity:1;stroke:none;stroke-width:1.00474763;stroke-linecap:butt;stroke-linejoin:miter;stroke-miterlimit:4;stroke-dasharray:none;stroke-opacity:1;color:#000000;clip-rule:nonzero;display:inline;overflow:visible;visibility:visible;opacity:1;isolation:auto;mix-blend-mode:normal;color-interpolation:sRGB;color-interpolation-filters:linearRGB;solid-color:#000000;solid-opacity:1;fill-rule:nonzero;stroke-dashoffset:0;filter-blend-mode:normal;filter-gaussianBlur-deviation:0;color-rendering:auto;image-rendering:auto;shape-rendering:auto;text-rendering:auto;enable-background:accumulate"
     id="path3453"
     d="M 11.596673,23.484076 C 6.9562115,23.585605 1.6628184,20.304138 1.30881,14.28399 l 4.368847,0.575921 c 0.245199,2.531264 3.879206,4.316315 6.073699,4.006329" />
  <rect
     transform="scale(-1,1)"
     style="fill:#a575d6;fill-opacity:1;stroke:none;color:#000000;clip-rule:nonzero;display:inline;overflow:visible;visibility:visible;opacity:1;isolation:auto;mix-blend-mode:normal;color-interpolation:sRGB;color-interpolation-filters:linearRGB;solid-color:#000000;solid-opacity:1;fill-rule:nonzero;stroke-width:1.00474763;stroke-linecap:butt;stroke-linejoin:round;stroke-miterlimit:4;stroke-dasharray:none;stroke-dashoffset:0;stroke-opacity:1;filter-blend-mode:normal;filter-gaussianBlur-deviation:0;color-rendering:auto;image-rendering:auto;shape-rendering:auto;text-rendering:auto;enable-background:accumulate"
     id="rect3290"
     y="19.441441"
     x="-12.014621"
     height="3.2787216"
     width="1.000053" />
  <path
     style="fill:#c09cee;fill-opacity:1;stroke:none;stroke-width:1;stroke-linecap:round;stroke-linejoin:round;stroke-miterlimit:4;stroke-dasharray:none;stroke-dashoffset:0;stroke-opacity:1"
     id="path3347"
     d="m 10.336139,13.821288 a 1.1787115,1.1787115 0 0 0 2.357423,0 1.1787115,1.1787115 0 1 0 -2.357423,0 z" />
  <path
     style="fill:none;fill-opacity:1;stroke:#6326b9;stroke-width:1;stroke-linecap:butt;stroke-linejoin:round;stroke-miterlimit:4;stroke-dasharray:none;stroke-opacity:1;color:#000000;clip-rule:nonzero;display:inline;overflow:visible;visibility:visible;opacity:0.5;isolation:auto;mix-blend-mode:normal;color-interpolation:sRGB;color-interpolation-filters:linearRGB;solid-color:#000000;solid-opacity:1;fill-rule:nonzero;stroke-dashoffset:0;marker:none;filter-blend-mode:normal;filter-gaussianBlur-deviation:0;color-rendering:auto;image-rendering:auto;shape-rendering:auto;text-rendering:auto;enable-background:accumulate"
     id="path3372-0"
     d="m 11.698155,18.816592 c 1.128728,0.06587 2.859052,-0.343133 3.906116,-1.390196 1.747833,-1.747833 2.158823,-5.887156 0.01788,-7.9626144 C 14.755287,8.6234327 12.696644,7.5328714 11.503308,7.5000003 L 11.490368,10.5 5.393211,5.6907163 c 0,0 6.097157,-5.19071651 6.097157,-5.19071651 l 0.01404,2.82257191 c 2.6301,0.048138 5.12131,0.9196431 7.119025,2.8746754 4.063985,3.9771549 4.05746,10.3968799 0.175027,14.3682149 -1.985452,2.030915 -4.586146,2.999155 -7.197102,2.928568" />
  <path
     style="color:#000000;clip-rule:nonzero;display:inline;overflow:visible;visibility:visible;opacity:0.5;isolation:auto;mix-blend-mode:normal;color-interpolation:sRGB;color-interpolation-filters:linearRGB;solid-color:#000000;solid-opacity:1;fill:none;fill-opacity:1;fill-rule:nonzero;stroke:url(#linearGradient3406-498-3);stroke-width:1.00474763;stroke-linecap:butt;stroke-linejoin:miter;stroke-miterlimit:4;stroke-dasharray:none;stroke-dashoffset:0;stroke-opacity:1;color-rendering:auto;image-rendering:auto;shape-rendering:auto;text-rendering:auto;enable-background:accumulate"
     id="path3453-0"
     d="M 11.596673,23.484076 C 6.9562115,23.585605 1.6628184,20.304138 1.30881,14.28399 l 4.368847,0.575921 C 5.7880954,16 8,18.86624 11.751356,18.86624" />
  <path
     style="opacity:0.4;fill:none;stroke:url(#linearGradient3408-109);stroke-width:1.00474763;stroke-linecap:butt;stroke-linejoin:miter;stroke-miterlimit:4;stroke-dasharray:none;stroke-opacity:1"
     id="path3370"
     d="m 11.691577,19.966046 c 1.446471,0.0129 3.484597,-0.709353 4.588023,-1.800765 2.57887,-2.554359 2.409256,-7.367123 0.02984,-9.5593888 C 15.30536,7.6807819 13.750227,6.5571461 10.5,6.5571461 l 0,1.926054 -3.69258,-2.7924843 c 0,0 3.69258,-3.1243897 3.69258,-3.1243897 l 0,1.8440569 c 2.678814,-0.120611 5.477585,0.5510024 7.478441,2.5518583 3.676568,3.6765687 3.47004,9.5432587 0.07722,12.9360817 -2.147844,2.147843 -4.400824,2.725534 -6.445786,2.572342" />
  <path
     style="fill:none;stroke:url(#linearGradient3410-460);stroke-width:1.00474763;stroke-linecap:butt;stroke-linejoin:round;stroke-miterlimit:4;stroke-dasharray:none;stroke-opacity:1"
     id="path2557"
     d="M 11.348056,22.568281 C 8.6765819,22.734479 2.775107,20.279341 2.411248,14.233355 l 1.9533017,-0.06205 C 4.5369217,17.035451 8,19.842871 11.661181,19.998604" />
  <path
     style="fill:none;fill-opacity:1;stroke:#6326b9;stroke-width:1;stroke-linecap:butt;stroke-linejoin:round;stroke-miterlimit:4;stroke-dasharray:none;stroke-dashoffset:0;stroke-opacity:1;color:#000000;clip-rule:nonzero;display:inline;overflow:visible;visibility:visible;opacity:0.5;isolation:auto;mix-blend-mode:normal;color-interpolation:sRGB;color-interpolation-filters:linearRGB;solid-color:#000000;solid-opacity:1;fill-rule:nonzero;marker:none;filter-blend-mode:normal;filter-gaussianBlur-deviation:0;color-rendering:auto;image-rendering:auto;shape-rendering:auto;text-rendering:auto;enable-background:accumulate"
     id="path3347-1"
     d="m 10.336139,13.821288 a 1.1787115,1.1787115 0 0 0 2.357423,0 1.1787115,1.1787115 0 1 0 -2.357423,0 z" />
</svg>

<svg xmlns="http://www.w3.org/2000/svg" xmlns:xlink="http://www.w3.org/1999/xlink" viewBox="0 0 24 24" version="1"><defs><linearGradient id="b"><stop offset="0" stop-color="#a575d6"/><stop offset="1" stop-color="#b483d5" stop-opacity="0"/></linearGradient><linearGradient id="e"><stop offset="0" stop-color="#6326b9"/><stop offset="1" stop-color="#903fc4" stop-opacity="0"/></linearGradient><radialGradient gradientTransform="matrix(-1.0353 0 0 .2353 77.03 20.41)" gradientUnits="userSpaceOnUse" xlink:href="#a" id="g" fy="4.625" fx="62.625" r="10.625" cy="4.625" cx="62.625"/><linearGradient id="a"><stop offset="0"/><stop offset="1" stop-opacity="0"/></linearGradient><linearGradient gradientTransform="matrix(-.50978 .03068 .0301 .50012 22.774 .506)" gradientUnits="userSpaceOnUse" xlink:href="#b" id="i" y2="26.843" x2="34.966" y1="34.601" x1="31.226"/><linearGradient gradientTransform="rotate(-135 16.907 1.385) scale(.4874 -.47815)" gradientUnits="userSpaceOnUse" xlink:href="#c" id="k" y2="43.366" x2="22.245" y1="5.02" x1="32.326"/><linearGradient id="c"><stop offset="0" stop-color="#fff"/><stop offset="1" stop-color="#fff" stop-opacity="0"/></linearGradient><linearGradient gradientTransform="matrix(-.48652 .02928 .02872 .4773 22.716 1.963)" gradientUnits="userSpaceOnUse" xlink:href="#d" id="l" y2="28.505" x2="39.686" y1="41.674" x1="28.117"/><linearGradient id="d"><stop offset="0" stop-color="#fff" stop-opacity="0"/><stop offset=".631" stop-color="#fff" stop-opacity=".275"/><stop offset="1" stop-color="#fff" stop-opacity="0"/></linearGradient><linearGradient id="f"><stop offset="0" stop-color="#f0c1ff"/><stop offset=".262" stop-color="#c5a3f2"/><stop offset=".705" stop-color="#7a36b1"/><stop offset="1" stop-color="#4c2d81"/></linearGradient><linearGradient gradientTransform="matrix(-.50978 .03068 .0301 .50012 22.774 .506)" gradientUnits="userSpaceOnUse" xlink:href="#e" id="j" y2="29.857" x2="37.04" y1="35.774" x1="33.687"/><linearGradient y2="68.803" x2="-33.299" y1="-5.302" x1="39.401" gradientTransform="rotate(-135 16.907 1.385) scale(.4874 -.47815)" gradientUnits="userSpaceOnUse" id="h" xlink:href="#f"/></defs><path d="M1.194 21.5a11 2.5 0 0 0 22 0 11 2.5 0 1 0-22 0z" overflow="visible" opacity=".4" fill="url(#g)" fill-rule="evenodd"/><path d="M11.698 18.817c1.13.065 2.86-.344 3.906-1.39 1.748-1.748 2.16-5.888.018-7.963-.867-.84-2.925-1.93-4.12-1.964l-.012 3-6.097-4.81L11.49.5l.014 2.823c2.63.048 5.122.92 7.12 2.874a10.152 10.152 0 0 1 .174 14.368 9.628 9.628 0 0 1-7.197 2.93" fill="url(#h)"/><path style="isolation:auto;mix-blend-mode:normal;filter-blend-mode:normal;filter-gaussianBlur-deviation:0" d="M11.597 23.484c-4.64.102-9.934-3.18-10.288-9.2l4.366.576c.245 2.53 3.88 4.316 6.073 4.006" fill="url(#i)" color="#000" overflow="visible"/><path style="isolation:auto;mix-blend-mode:normal;filter-blend-mode:normal;filter-gaussianBlur-deviation:0" fill="#a575d6" color="#000" overflow="visible" d="M12.015 19.44h-1v3.28h1z"/><path d="M10.336 13.82a1.18 1.18 0 0 0 2.358 0 1.18 1.18 0 1 0-2.358 0z" fill="#c09cee"/><path style="isolation:auto;mix-blend-mode:normal;filter-blend-mode:normal;filter-gaussianBlur-deviation:0" d="M11.698 18.817c1.13.065 2.86-.344 3.906-1.39 1.748-1.748 2.16-5.888.018-7.963-.867-.84-2.925-1.93-4.12-1.964l-.012 3-6.097-4.81L11.49.5l.014 2.823c2.63.048 5.122.92 7.12 2.874a10.152 10.152 0 0 1 .174 14.368 9.628 9.628 0 0 1-7.197 2.93" fill="none" stroke="#6326b9" stroke-linejoin="round" color="#000" overflow="visible" opacity=".5"/><path style="isolation:auto;mix-blend-mode:normal" d="M11.597 23.484c-4.64.102-9.934-3.18-10.288-9.2l4.366.576C5.786 16 8 18.866 11.75 18.866" color="#000" overflow="visible" opacity=".5" fill="none" stroke="url(#j)" stroke-width="1.005"/><path d="M11.692 19.966c1.446.013 3.484-.71 4.588-1.8 2.578-2.555 2.41-7.368.03-9.56-1.005-.925-2.56-2.05-5.81-2.05v1.927L6.807 5.69 10.5 2.567V4.41c2.68-.12 5.478.55 7.478 2.552 3.677 3.677 3.47 9.544.078 12.936-2.148 2.148-4.4 2.726-6.446 2.573" opacity=".4" fill="none" stroke="url(#k)" stroke-width="1.005"/><path d="M11.348 22.568c-2.67.166-8.573-2.29-8.937-8.335l1.957-.062C4.537 17.038 8 19.846 11.66 20" fill="none" stroke="url(#l)" stroke-width="1.005" stroke-linejoin="round"/><path style="isolation:auto;mix-blend-mode:normal;filter-blend-mode:normal;filter-gaussianBlur-deviation:0" d="M10.336 13.82a1.18 1.18 0 0 0 2.358 0 1.18 1.18 0 1 0-2.358 0z" fill="none" stroke="#6326b9" stroke-linejoin="round" color="#000" overflow="visible" opacity=".5"/></svg>
